X: 28427
T: Mullaghbawn, The
R: reel
M: 4/4
K: Gmajor
|:df|g2dc BGBe|dBGF GABd|eAAG FADA|FGAB cdef|
g2dc BGG2|eGce dGBd|eAAG FGAB|cedB G2:|
|:Bc|dBBA GBdB|gBBA GBdB|eAAG ABcd|cAAG FGAc|
BcBA GBdB|gBBA GBdB|eAAG FGAB|cedB G2:|

